X:37
T:The Cameronian
R:reel
M:4/4
L:1/8
K:Dmaj
dB|:A2 FA DAFA|GFEF GBdB|BAFA DAFA|GBAG FDdB|
|AF (3FFF DF (3FFF|GFEF GBdB|BAFA DAFA|GBAG FDDB:|
|:Addc [d3D3] d|cdef gfed|(3cBA eA fAed|(3Bcd ef gfeg|
|faeg faeg|fedc defg|(3agf ge fdec|dBAG FDDB:|

